svg/u1f6d6.svg

<svg viewBox="0 0 128 128" xmlns="http://www.w3.org/2000/svg">
  <path d="M12.24,114.81c-1.33,0-1.15,1.59-1.15,4.59c0,3-0.18,4.68,1.41,4.68s102.24-0.18,103.3-0.26 c1.06-0.09,0.79-3.97,0.79-5.47c0-1.85,0.26-3.44-1.23-3.53C113.86,114.73,12.77,114.81,12.24,114.81z" fill="#ED6D30"/>
  <polygon points="12.58,90.36 12.68,114.9 114.82,114.8 115.05,89.7 112.8,87.18 13.4,87.01 " fill="#F78A51"/>
  <path d="M14.67,88.61l-2.09,1.75l-0.01,3.89c0,0,0.68,0.48,1.36,0.14c0.68-0.34,1.63-1,2.47-1.07 c1.34-0.1,1.23,1.18,2.52,1.18c1.29,0,2.46-1.29,3.55-1.29c1.09,0,1.59,1.38,2.75,1.31c1.16-0.07,1.81-1.24,3.26-1.2 c1.16,0.03,1.36,1.2,2.79,1.2c1.43,0,2.16-1.36,3.38-1.36s1.62,1.44,2.98,1.44s1.73-1.44,3.29-1.44s1.43,1.36,2.72,1.22 s1.42-1.26,2.98-1.33s1.72,1.47,3.08,1.47s1.32-1.11,2.48-1.11c1.16,0,22.68-0.05,23.5-0.05c0.82,0,2.08,1.44,3.44,1.44 s0.98-1.54,2.47-1.58c0.89-0.02,2.62,1.48,3.64,1.48s1.39-1.54,2.54-1.61s2.86,1.7,4.22,1.56c1.36-0.14,0.68-1.5,1.7-1.63 c1.02-0.14,3.06,1.5,4.42,1.56c1.36,0.07,0.48-1.77,1.9-1.77s2.52,1.56,4.01,1.63s0.48-1.56,1.97-1.7s2.58,2.04,4.01,1.9 c1.43-0.14,0.82-1.7,2.04-1.77s2.92,1.02,2.92,1.02l0.06-4.22L56.26,71.11L14.67,88.61z" fill="#ED6D30"/>
  <path d="M51.87,123.96c0,0,0.25-29.46,0.21-30.18c-0.05-0.87,0.72-1.08,1.34-1.08s21.18,0,21.8,0 c0.62,0,0.98,0.46,1.03,1.03c0.05,0.57-0.1,30.18-0.1,30.18L51.87,123.96z" fill="#51362F"/>
  <path d="M8.45,76.25c0,0-4.12,9.11-4.08,9.8s1.19,4.88,3.03,4.99c2.52,0.15,2.98-2.06,3.4-2.06 c0.42,0,0.98,2.16,2.42,2.37c1.68,0.24,2.89-2.46,3.54-2.46c0.65,0,0.97,2.35,2.49,2.35s3.14-2.54,3.74-2.49 c0.6,0.05,1.18,2.7,2.42,2.7c1.25,0,2.47-2.26,3.55-2.37c0.56-0.05,1.09,2.53,2.11,2.57c1.02,0.05,2.76-2.67,3.64-2.67 s1.57,2.81,2.91,2.68s3.15-2.63,3.79-2.63s1.34,2.53,2.39,2.58c0.95,0.04,2.52-2.38,3.16-2.42s1.41,2.47,2.47,2.47 s2.21-2.72,3.09-2.77c0.88-0.05,1.25,2.56,2.31,2.56c1.06,0,2.63-2.63,3.6-2.67c0.97-0.05,1.5,2.52,2.47,2.52s2.05-2.61,2.74-2.64 c1.07-0.04,1.75,2.54,3.23,2.59c1.48,0.05,2.08-2.49,3.23-2.49c1.15,0,1.48,2.4,2.77,2.45c1.29,0.05,2.35-2.49,3.32-2.45 c0.97,0.05,1.61,2.35,2.68,2.35s2.12-2.35,2.91-2.31c0.78,0.05,1.85,2.4,2.91,2.4s1.94-2.43,2.45-2.45c0.98-0.03,1.98,2.54,3,2.45 c1.02-0.09,2.2-2.62,3.08-2.58c0.88,0.05,2.23,2.87,3.29,2.78c1.06-0.09,1.96-2.77,2.93-2.73s1.75,2.47,2.98,2.47 c1.13,0,1.76-2.32,2.78-2.37c1.02-0.05,1.97,2.22,3.03,2.11c1.06-0.11,1.49-2.22,2.42-2.26c0.92-0.05,2.28,2.39,3.62,2.34 c1.34-0.05,2.03-1.94,2.77-1.98s1.38,2.06,3.18,2.03c1.62-0.02,3.74-3.05,3.32-5.17c-0.42-2.12-6.18-10.57-6.18-10.57L8.45,76.25z" fill="#6C4D43"/>
  <path d="M17.18,52.1c0,0-5.37,7.54-8.56,14.43S4.2,77.5,4,81.52c-0.2,3.93,0.37,4.53,0.37,4.53l5.83-6.37 c0,0,0.06,6.02,0.49,6.08s4.92-6.21,5.22-6.27c0.31-0.06,0.31,6.33,0.74,6.33s5.04-6.45,5.35-6.45c0.31,0,0.43,6.39,0.8,6.39 s4.55-6.51,4.86-6.45c0.31,0.06,1.41,6.82,1.78,6.82s4.24-6.88,4.67-6.88c0.43,0,0.92,7.13,1.41,7.13s4.3-6.88,4.61-6.88 s1.54,6.82,2.03,6.76c0.49-0.06,3.87-6.76,4.18-6.64s1.11,6.58,1.66,6.58s3.5-6.76,3.99-6.76S53.72,86,54.09,86s3.44-6.58,3.81-6.64 c0.37-0.06,2.34,7.25,2.95,7.25c0.61,0,2.46-6.76,2.89-6.7c0.43,0.06,3.32,6.45,3.56,6.45s2.4-6.7,2.64-6.7s3.13,6.08,3.56,6.15 c0.43,0.06,2.03-6.08,2.34-5.96c0.31,0.12,3.26,6.45,3.63,6.51c0.37,0.06,1.66-6.64,2.03-6.64s4.42,7.37,4.73,7.31 c0.31-0.06,0.68-7.44,1.04-7.5c0.37-0.06,5.22,7.25,5.59,7.19c0.37-0.06,0.18-7.44,0.43-7.44s4.24,6.88,4.79,6.82 s1.04-6.45,1.41-6.45s4.79,7.5,5.35,7.44s0.12-7.01,0.37-7.07c0.25-0.06,5.22,6.27,5.47,6.21c0.25-0.06,0.18-6.82,0.61-6.88 c0.43-0.06,5.04,6.58,5.47,6.45c0.43-0.12,0.49-6.76,0.74-6.82c0.25-0.06,6.01,6.85,6.01,6.85s1.12-6.01-0.86-11.77 c-1.98-5.76-6.79-13.85-9.12-17.29c-2.32-3.44-3.68-5.03-3.68-5.03l-56.81-7.28L17.18,52.1z" fill="#A37F69"/>
  <path d="M36.88,28.99c0,0-7.59,7.47-11.21,11.79s-8.5,11.31-8.5,11.31s-1.77,8.18-1.25,8.24 c0.53,0.06,5.72-7.76,6.19-7.71c0.47,0.06-0.76,7.88-0.29,8c0.47,0.12,6.25-8.11,6.54-8.17c0.29-0.06-0.93,8.11-0.53,8.23 s6.25-8.17,6.6-8.17s0.82,7.65,1.28,7.65s4.32-7.76,4.67-7.71c0.35,0.06,1.17,8,1.75,8.11c0.58,0.12,3.27-8.23,3.74-8.29 c0.47-0.06,1.63,8.76,2.16,8.76c0.53,0,3.33-8.64,3.68-8.64c0.35,0,1.23,8.64,1.81,8.64c0.58,0,3.21-8.81,3.56-8.81 s2.86,8.46,3.27,8.35c0.41-0.12,2.63-8.46,3.04-8.41c0.41,0.06,2.33,8.17,3.04,8.29c0.7,0.12,2.57-7.88,3.15-7.88s2.1,8.87,2.8,8.87 s2.28-8.87,2.63-8.87s3.56,8.76,4.09,8.81c0.53,0.06,1.11-8.35,1.75-8.41c0.64-0.06,4.09,8.41,4.44,8.35s0.64-8.29,0.99-8.35 c0.35-0.06,4.26,7.71,4.9,7.71c0.64,0,0.23-8.06,0.82-8c0.58,0.06,6.42,8.46,6.95,8.46s-1.52-8.76-1.05-8.87 c0.47-0.12,6.6,9.34,7.24,9.16c0.64-0.18-1.63-8.58-1.23-8.7c0.41-0.12,6.77,8.23,7.36,8c0.58-0.23-1.38-8.99-1.38-8.99 s-5.86-7.65-8.89-11.38c-3.04-3.74-7.82-8.7-7.82-8.7L69.61,19.89L36.88,28.99z" fill="#BD9177"/>
  <path d="M36.88,28.99c0,0-2.87,5.41-2.29,5.75s7.69-6.49,8.38-6.32c0.69,0.17-2.3,7.23-1.32,7.46 c0.98,0.23,5.68-7.75,6.26-7.64c0.57,0.11-1.21,7.75-0.29,8.04c0.92,0.29,4.88-8.33,5.51-8.21c0.63,0.11,0.46,8.61,1.03,8.67 c0.57,0.06,3.5-8.27,3.9-8.27c0.4,0,1.55,8.79,2.24,8.84c0.69,0.06,2.75-9.15,3.21-9.15s2.76,8.69,3.51,8.69 c0.75,0,1.2-8.77,1.6-8.94c0.4-0.17,3.76,8.42,4.72,8.42c0.83,0-0.58-8.55-0.06-8.67c0.52-0.11,5.28,8.84,6.26,8.79 c0.98-0.06-0.72-8.35-0.26-8.35c0.46,0,5.72,8.29,6.58,8.29c0.86,0-1.8-8.43-1.28-8.55c0.52-0.11,8.35,7.39,8.81,7.27 c0.46-0.11-0.23-3.46-0.23-3.46S74.27,12.23,63.7,12.18C52.9,12.12,36.88,28.99,36.88,28.99z" fill="#D2A590"/>
</svg>

<svg viewBox="0 0 128 128" xmlns="http://www.w3.org/2000/svg">
  <defs/>
  <path d="M12.24,114.81 C10.91,114.81 11.09,116.4 11.09,119.4 C11.09,122.4 10.91,124.08 12.5,124.08 C14.09,124.08 114.74,123.9 115.8,123.82 C116.86,123.73 116.59,119.85 116.59,118.35 C116.59,116.5 116.85,114.91 115.36,114.82 C113.86,114.73 12.77,114.81 12.24,114.81 Z" fill="#ED6D30"/>
  <path d="M12.58,90.36 L12.68,114.9 L114.82,114.8 L115.05,89.7 L112.8,87.18 L13.4,87.01 Z" fill="#F78A51"/>
  <path d="M14.67,88.61 L12.58,90.36 L12.57,94.25 C12.57,94.25 13.25,94.73 13.93,94.39 C14.61,94.05 15.56,93.39 16.4,93.32 C17.74,93.22 17.63,94.5 18.92,94.5 C20.21,94.5 21.38,93.21 22.47,93.21 C23.56,93.21 24.06,94.59 25.22,94.52 C26.38,94.45 27.03,93.28 28.48,93.32 C29.64,93.35 29.84,94.52 31.27,94.52 C32.7,94.52 33.43,93.16 34.65,93.16 C35.87,93.16 36.27,94.6 37.63,94.6 C38.99,94.6 39.36,93.16 40.92,93.16 C42.48,93.16 42.35,94.52 43.64,94.38 C44.93,94.24 45.06,93.12 46.62,93.05 C48.18,92.98 48.34,94.52 49.7,94.52 C51.06,94.52 51.02,93.41 52.18,93.41 C53.34,93.41 74.86,93.36 75.68,93.36 C76.5,93.36 77.76,94.8 79.12,94.8 C80.48,94.8 80.1,93.26 81.59,93.22 C82.48,93.2 84.21,94.7 85.23,94.7 C86.25,94.7 86.62,93.16 87.77,93.09 C88.92,93.02 90.63,94.79 91.99,94.65 C93.35,94.51 92.67,93.15 93.69,93.02 C94.71,92.88 96.75,94.52 98.11,94.58 C99.47,94.65 98.59,92.81 100.01,92.81 C101.43,92.81 102.53,94.37 104.02,94.44 C105.51,94.51 104.5,92.88 105.99,92.74 C107.48,92.6 108.57,94.78 110,94.64 C111.43,94.5 110.82,92.94 112.04,92.87 C113.26,92.8 114.96,93.89 114.96,93.89 L115.02,89.67 L56.26,71.11 L14.67,88.61 Z" fill="#ED6D30"/>
  <path d="M51.87,123.96 C51.87,123.96 52.12,94.5 52.08,93.78 C52.03,92.91 52.8,92.7 53.42,92.7 C54.04,92.7 74.6,92.7 75.22,92.7 C75.84,92.7 76.2,93.16 76.25,93.73 C76.3,94.3 76.15,123.91 76.15,123.91 L51.87,123.96 Z" fill="#51362F"/>
  <path d="M8.45,76.25 C8.45,76.25 4.33,85.36 4.37,86.05 C4.41,86.74 5.56,90.93 7.4,91.04 C9.92,91.19 10.38,88.98 10.8,88.98 C11.22,88.98 11.78,91.14 13.22,91.35 C14.9,91.59 16.11,88.89 16.76,88.89 C17.41,88.89 17.73,91.24 19.25,91.24 C20.77,91.24 22.39,88.7 22.99,88.75 C23.59,88.8 24.17,91.45 25.41,91.45 C26.66,91.45 27.88,89.19 28.96,89.08 C29.52,89.03 30.05,91.61 31.07,91.65 C32.09,91.7 33.83,88.98 34.71,88.98 C35.59,88.98 36.28,91.79 37.62,91.66 C38.96,91.53 40.77,89.03 41.41,89.03 C42.05,89.03 42.75,91.56 43.8,91.61 C44.75,91.65 46.32,89.23 46.96,89.19 C47.6,89.15 48.37,91.66 49.43,91.66 C50.49,91.66 51.64,88.94 52.52,88.89 C53.4,88.84 53.77,91.45 54.83,91.45 C55.89,91.45 57.46,88.82 58.43,88.78 C59.4,88.73 59.93,91.3 60.9,91.3 C61.87,91.3 62.95,88.69 63.64,88.66 C64.71,88.62 65.39,91.2 66.87,91.25 C68.35,91.3 68.95,88.76 70.1,88.76 C71.25,88.76 71.58,91.16 72.87,91.21 C74.16,91.26 75.22,88.72 76.19,88.76 C77.16,88.81 77.8,91.11 78.87,91.11 C79.94,91.11 80.99,88.76 81.78,88.8 C82.56,88.85 83.63,91.2 84.69,91.2 C85.75,91.2 86.63,88.77 87.14,88.75 C88.12,88.72 89.12,91.29 90.14,91.2 C91.16,91.11 92.34,88.58 93.22,88.62 C94.1,88.67 95.45,91.49 96.51,91.4 C97.57,91.31 98.47,88.63 99.44,88.67 C100.41,88.71 101.19,91.14 102.42,91.14 C103.55,91.14 104.18,88.82 105.2,88.77 C106.22,88.72 107.17,90.99 108.23,90.88 C109.29,90.77 109.72,88.66 110.65,88.62 C111.57,88.57 112.93,91.01 114.27,90.96 C115.61,90.91 116.3,89.02 117.04,88.98 C117.78,88.94 118.42,91.04 120.22,91.01 C121.84,90.99 123.96,87.96 123.54,85.84 C123.12,83.72 117.36,75.27 117.36,75.27 L8.45,76.25 Z" fill="#6C4D43"/>
  <path d="M17.18,52.1 C17.18,52.1 11.81,59.64 8.62,66.53 C5.43,73.42 4.2,77.5 4,81.52 C3.8,85.45 4.37,86.05 4.37,86.05 L10.2,79.68 C10.2,79.68 10.26,85.7 10.69,85.76 C11.12,85.82 15.61,79.55 15.91,79.49 C16.22,79.43 16.22,85.82 16.65,85.82 C17.08,85.82 21.69,79.37 22,79.37 C22.31,79.37 22.43,85.76 22.8,85.76 C23.17,85.76 27.35,79.25 27.66,79.31 C27.97,79.37 29.07,86.13 29.44,86.13 C29.81,86.13 33.68,79.25 34.11,79.25 C34.54,79.25 35.03,86.38 35.52,86.38 C36.01,86.38 39.82,79.5 40.13,79.5 C40.44,79.5 41.67,86.32 42.16,86.26 C42.65,86.2 46.03,79.5 46.34,79.62 C46.65,79.74 47.45,86.2 48,86.2 C48.55,86.2 51.5,79.44 51.99,79.44 C52.48,79.44 53.72,86 54.09,86 C54.46,86 57.53,79.42 57.9,79.36 C58.27,79.3 60.24,86.61 60.85,86.61 C61.46,86.61 63.31,79.85 63.74,79.91 C64.17,79.97 67.06,86.36 67.3,86.36 C67.54,86.36 69.7,79.66 69.94,79.66 C70.18,79.66 73.07,85.74 73.5,85.81 C73.93,85.87 75.53,79.73 75.84,79.85 C76.15,79.97 79.1,86.3 79.47,86.36 C79.84,86.42 81.13,79.72 81.5,79.72 C81.87,79.72 85.92,87.09 86.23,87.03 C86.54,86.97 86.91,79.59 87.27,79.53 C87.64,79.47 92.49,86.78 92.86,86.72 C93.23,86.66 93.04,79.28 93.29,79.28 C93.54,79.28 97.53,86.16 98.08,86.1 C98.63,86.04 99.12,79.65 99.49,79.65 C99.86,79.65 104.28,87.15 104.84,87.09 C105.4,87.03 104.96,80.08 105.21,80.02 C105.46,79.96 110.43,86.29 110.68,86.23 C110.93,86.17 110.86,79.41 111.29,79.35 C111.72,79.29 116.33,85.93 116.76,85.8 C117.19,85.68 117.25,79.04 117.5,78.98 C117.75,78.92 123.51,85.83 123.51,85.83 C123.51,85.83 124.63,79.82 122.65,74.06 C120.67,68.3 115.86,60.21 113.53,56.77 C111.21,53.33 109.85,51.74 109.85,51.74 L53.04,44.46 L17.18,52.1 Z" fill="#A37F69"/>
  <path d="M36.88,28.99 C36.88,28.99 29.29,36.46 25.67,40.78 C22.05,45.1 17.17,52.09 17.17,52.09 C17.17,52.09 15.4,60.27 15.92,60.33 C16.45,60.39 21.64,52.57 22.11,52.62 C22.58,52.68 21.35,60.5 21.82,60.62 C22.29,60.74 28.07,52.51 28.36,52.45 C28.65,52.39 27.43,60.56 27.83,60.68 C28.23,60.8 34.08,52.51 34.43,52.51 C34.78,52.51 35.25,60.16 35.71,60.16 C36.17,60.16 40.03,52.4 40.38,52.45 C40.73,52.51 41.55,60.45 42.13,60.56 C42.71,60.68 45.4,52.33 45.87,52.27 C46.34,52.21 47.5,61.03 48.03,61.03 C48.56,61.03 51.36,52.39 51.71,52.39 C52.06,52.39 52.94,61.03 53.52,61.03 C54.1,61.03 56.73,52.22 57.08,52.22 C57.43,52.22 59.94,60.68 60.35,60.57 C60.76,60.45 62.98,52.11 63.39,52.16 C63.8,52.22 65.72,60.33 66.43,60.45 C67.13,60.57 69,52.57 69.58,52.57 C70.16,52.57 71.68,61.44 72.38,61.44 C73.08,61.44 74.66,52.57 75.01,52.57 C75.36,52.57 78.57,61.33 79.1,61.38 C79.63,61.44 80.21,53.03 80.85,52.97 C81.49,52.91 84.94,61.38 85.29,61.32 C85.64,61.26 85.93,53.03 86.28,52.97 C86.63,52.91 90.54,60.68 91.18,60.68 C91.82,60.68 91.41,52.62 92,52.68 C92.58,52.74 98.42,61.14 98.95,61.14 C99.48,61.14 97.43,52.38 97.9,52.27 C98.37,52.15 104.5,61.61 105.14,61.43 C105.78,61.25 103.51,52.85 103.91,52.73 C104.32,52.61 110.68,60.96 111.27,60.73 C111.85,60.5 109.89,51.74 109.89,51.74 C109.89,51.74 104.03,44.09 101,40.36 C97.96,36.62 93.18,31.66 93.18,31.66 L69.61,19.89 L36.88,28.99 Z" fill="#BD9177"/>
  <path d="M36.88,28.99 C36.88,28.99 34.01,34.4 34.59,34.74 C35.17,35.08 42.28,28.25 42.97,28.42 C43.66,28.59 40.67,35.65 41.65,35.88 C42.63,36.11 47.33,28.13 47.91,28.24 C48.48,28.35 46.7,35.99 47.62,36.28 C48.54,36.57 52.5,27.95 53.13,28.07 C53.76,28.18 53.59,36.68 54.16,36.74 C54.73,36.8 57.66,28.47 58.06,28.47 C58.46,28.47 59.61,37.26 60.3,37.31 C60.99,37.37 63.05,28.16 63.51,28.16 C63.97,28.16 66.27,36.85 67.02,36.85 C67.77,36.85 68.22,28.08 68.62,27.91 C69.02,27.74 72.38,36.33 73.34,36.33 C74.17,36.33 72.76,27.78 73.28,27.66 C73.8,27.55 78.56,36.5 79.54,36.45 C80.52,36.39 78.82,28.1 79.28,28.1 C79.74,28.1 85,36.39 85.86,36.39 C86.72,36.39 84.06,27.96 84.58,27.84 C85.1,27.73 92.93,35.23 93.39,35.11 C93.85,35 93.16,31.65 93.16,31.65 C93.16,31.65 74.27,12.23 63.7,12.18 C52.9,12.12 36.88,28.99 36.88,28.99 Z" fill="#D2A590"/>
</svg>
